gama.ui.shared/icons_svg/dark/views/layout.stack.svg

<svg height="25" viewBox="-778.483 -3025.285 25 25" width="25" xmlns="http://www.w3.org/2000/svg"><g fill="none"><path d="m-761.179-3024.7847h-12.9524c-2.1271 0-3.8514 1.7243-3.8514 3.8513v12.8916c0 2.1271 1.7243 3.8514 3.8514 3.8514h12.9524c2.127 0 3.8513-1.7243 3.8513-3.8514v-12.8916c0-2.127-1.7243-3.8513-3.8513-3.8513z" fill="#666"/><path d="m-761.179-3024.7847h-12.9524c-2.1271 0-3.8514 1.7243-3.8514 3.8513v12.8916c0 2.1271 1.7243 3.8514 3.8514 3.8514h12.9524c2.127 0 3.8513-1.7243 3.8513-3.8514v-12.8916c0-2.127-1.7243-3.8513-3.8513-3.8513z" stroke="#fff" stroke-linecap="round" stroke-linejoin="round" stroke-width=".25"/><path d="m-757.8341-3021.379h-12.9524c-2.127 0-3.8513 1.7242-3.8513 3.8513v12.8917c0 2.127 1.7243 3.8513 3.8513 3.8513h12.9524c2.12705 0 3.8513-1.7243 3.8513-3.8513v-12.8917c0-2.1271-1.72425-3.8513-3.8513-3.8513z" fill="#666"/><path d="m-757.8341-3021.379h-12.9524c-2.127 0-3.8513 1.7242-3.8513 3.8513v12.8917c0 2.127 1.7243 3.8513 3.8513 3.8513h12.9524c2.12705 0 3.8513-1.7243 3.8513-3.8513v-12.8917c0-2.1271-1.72425-3.8513-3.8513-3.8513z" stroke="#fff" stroke-linecap="round" stroke-linejoin="round" stroke-width=".25"/></g></svg>

<?xml version="1.0" encoding="UTF-8" standalone="no"?>
<!DOCTYPE svg PUBLIC "-//W3C//DTD SVG 1.1//EN" "http://www.w3.org/Graphics/SVG/1.1/DTD/svg11.dtd">
<svg xmlns="http://www.w3.org/2000/svg" xmlns:xl="http://www.w3.org/1999/xlink" version="1.1" xmlns:dc="http://purl.org/dc/elements/1.1/" viewBox="-778.4828 -3025.2847 25 25" width="25" height="25">
  <defs/>
  <g id="SOURCES" stroke-opacity="1" fill="none" stroke="none" fill-opacity="1" stroke-dasharray="none">
    <title>SOURCES</title>
    <g id="SOURCES_Dark">
      <title>Dark</title>
      <g id="Graphic_11119">
        <path d="M -761.179 -3024.7847 L -774.1314 -3024.7847 C -776.2585 -3024.7847 -777.9828 -3023.0604 -777.9828 -3020.9334 L -777.9828 -3008.0418 C -777.9828 -3005.9147 -776.2585 -3004.1904 -774.1314 -3004.1904 L -761.179 -3004.1904 C -759.052 -3004.1904 -757.3277 -3005.9147 -757.3277 -3008.0418 L -757.3277 -3020.9334 C -757.3277 -3023.0604 -759.052 -3024.7847 -761.179 -3024.7847 Z" fill="#666"/>
        <path d="M -761.179 -3024.7847 L -774.1314 -3024.7847 C -776.2585 -3024.7847 -777.9828 -3023.0604 -777.9828 -3020.9334 L -777.9828 -3008.0418 C -777.9828 -3005.9147 -776.2585 -3004.1904 -774.1314 -3004.1904 L -761.179 -3004.1904 C -759.052 -3004.1904 -757.3277 -3005.9147 -757.3277 -3008.0418 L -757.3277 -3020.9334 C -757.3277 -3023.0604 -759.052 -3024.7847 -761.179 -3024.7847 Z" stroke="white" stroke-linecap="round" stroke-linejoin="round" stroke-width=".25"/>
      </g>
      <g id="Graphic_11118">
        <path d="M -757.8341 -3021.379 L -770.7865 -3021.379 C -772.9135 -3021.379 -774.6378 -3019.6548 -774.6378 -3017.5277 L -774.6378 -3004.636 C -774.6378 -3002.509 -772.9135 -3000.7847 -770.7865 -3000.7847 L -757.8341 -3000.7847 C -755.70705 -3000.7847 -753.9828 -3002.509 -753.9828 -3004.636 L -753.9828 -3017.5277 C -753.9828 -3019.6548 -755.70705 -3021.379 -757.8341 -3021.379 Z" fill="#666"/>
        <path d="M -757.8341 -3021.379 L -770.7865 -3021.379 C -772.9135 -3021.379 -774.6378 -3019.6548 -774.6378 -3017.5277 L -774.6378 -3004.636 C -774.6378 -3002.509 -772.9135 -3000.7847 -770.7865 -3000.7847 L -757.8341 -3000.7847 C -755.70705 -3000.7847 -753.9828 -3002.509 -753.9828 -3004.636 L -753.9828 -3017.5277 C -753.9828 -3019.6548 -755.70705 -3021.379 -757.8341 -3021.379 Z" stroke="white" stroke-linecap="round" stroke-linejoin="round" stroke-width=".25"/>
      </g>
    </g>
  </g>
</svg>
